!!!COM: Mozart	
!!!OTL: Zehn Variationen in G, uber die Ariette 'Unser dummer Pobel meint' aus dem Singspiel 'Die Pilgrime von Mekka'
!!!Variation: Variation 9 b
!!!COM: Mozart
**function	**harm	**kern	**kern
*M4/4	*M4/4	*staff2	*staff1
*G:	*G:	*clefF4	*clefG2
*tb96	*	*k[f#]	*k[f#]
*	*	*met(c|)	*met(c|)
*	*	*M2/2	*M2/2
*	*	*G:	*G:
=-	=-	=-	=-
1P	1V65/ii	4..E 4..B 4..d 4..e	4GGG# 4GG#
.	.	.	4GG#
.	.	16e	.
.	.	4..E 4..B 4..d 4..e	4GGG# 4GG#
.	.	.	4GG#
.	.	16e	.
=	=	=178	=178
1P	1i/ii	4E 4A 4c [4e	2AAA 2AA
.	.	32eLLL]	.
.	.	32d	.
.	.	32c	.
.	.	32BJJ	.
.	.	32ALL	.
.	.	32B	.
.	.	32c	.
.	.	32dJJJ	.
.	.	32eLLL	2r
.	.	32f#	.
.	.	32g#	.
.	.	32aJJ	.
.	.	32bLL	.
.	.	32cc	.
.	.	32dd	.
.	.	32eeJJJ	.
.	.	24ff#LL	.
.	.	24gg#	.
.	.	24aaJ	.
.	.	24bbL	.
.	.	24ccc	.
.	.	24dddJJ	.
*	*	*	*clefG2
=	=	=179	=179
1P	1V7/ii	4eee	4e 4g# 4dd
.	.	4eee	4e 4g# 4dd
.	.	4eee	4e 4g# 4dd
.	.	4eee	4e 4g# 4dd
=	=	=180	=180
1P	1ii	(4.eee	4a 4cc
.	.	.	4r
.	.	8ccc)	.
.	.	8aa	2r
.	.	8r	.
.	.	4r	.
*	*	*clefF4	*clefF4
=	=	=181	=181
1D	1V65	4..D 4..A 4..c 4..d	4FFF# 4FF#
.	.	.	4FF#
.	.	16d	.
.	.	4..D 4..A 4..c 4..d	4FFF# 4FF#
.	.	.	4FF#
.	.	16d	.
=	=	=182	=182
1D	1I	4D 4G 4B [4d	2GGG 2GG
.	.	32dLLL]	.
.	.	32c	.
.	.	32B	.
.	.	32AJJ	.
.	.	32GLL	.
.	.	32A	.
.	.	32B	.
.	.	32cJJJ	.
*	*	*clefG2	*
.	.	32dLLL	2r
.	.	32e	.
.	.	32f#	.
.	.	32gJJ	.
.	.	32aLL	.
.	.	32b	.
.	.	32cc	.
.	.	32ddJJJ	.
.	.	24eeLL	.
.	.	24ff#	.
.	.	24ggJ	.
.	.	24aaL	.
.	.	24bb	.
.	.	24cccJJ	.
*	*	*	*clefG2
=	=	=183	=183
1D	1V7	(8ddd'L	4d 4f# 4cc
.	.	8ddd'	.
.	.	8ddd'	4d 4f# 4cc
.	.	8ddd'J	.
.	.	8ddd'L	4d 4f# 4cc
.	.	8ddd'	.
.	.	8ddd'	4d 4f# 4cc
.	.	8ddd'J)	.
=	=	=184	=184
1T	1I	(8.dddL	4g 4b
.	.	16bbJk	.
.	.	32dddLLL	4r
.	.	32bb	.
.	.	32ddd	.
.	.	32bbJJ	.
.	.	32dddLL	.
.	.	32bb	.
.	.	32ddd	.
.	.	32bbJJJ	.
.	.	8gg)	2r
.	.	8r	.
.	.	4r	.
=	=	=185	=185
*-	*-	*-	*-
